client/public/assets/icons/utility/spinner.svg

<?xml version="1.0"?><svg xmlns="http://www.w3.org/2000/svg" width="52" height="52" viewBox="0 0 52 52"><g fill="#fff"><path d="m16 27.5v-3c0-0.8-0.7-1.5-1.5-1.5h-11c-0.8 0-1.5 0.7-1.5 1.5v3c0 0.8 0.7 1.5 1.5 1.5h11c0.8 0 1.5-0.7 1.5-1.5z m1.9 4.5c-0.6-0.6-1.5-0.6-2.1 0l-7.8 7.8c-0.6 0.6-0.6 1.5 0 2.1l2.1 2.1c0.6 0.6 1.5 0.6 2.1 0l7.8-7.8c0.6-0.6 0.6-1.5 0-2.1l-2.1-2.1z m16.2-12c0.6 0.6 1.5 0.6 2.1 0l7.8-7.8c0.6-0.6 0.6-1.5 0-2.1l-2.1-2.1c-0.6-0.6-1.5-0.6-2.1 0l-7.8 7.7c-0.6 0.6-0.6 1.5 0 2.1l2.1 2.2z m-21.9-12c-0.6-0.6-1.5-0.6-2.1 0l-2.1 2.1c-0.6 0.6-0.6 1.5 0 2.1l7.8 7.8c0.6 0.6 1.5 0.6 2.1 0l2.1-2.1c0.6-0.6 0.6-1.5 0-2.1l-7.8-7.8z m24.1 24c-0.6-0.6-1.5-0.6-2.1 0l-2.2 2.1c-0.6 0.6-0.6 1.5 0 2.1l7.8 7.8c0.6 0.6 1.5 0.6 2.1 0l2.1-2.1c0.6-0.6 0.6-1.5 0-2.1l-7.7-7.8z m-8.8 4h-3c-0.8 0-1.5 0.7-1.5 1.5v11c0 0.8 0.7 1.5 1.5 1.5h3c0.8 0 1.5-0.7 1.5-1.5v-11c0-0.8-0.7-1.5-1.5-1.5z m21-13h-11c-0.8 0-1.5 0.7-1.5 1.5v3c0 0.8 0.7 1.5 1.5 1.5h11c0.8 0 1.5-0.7 1.5-1.5v-3c0-0.8-0.7-1.5-1.5-1.5z m-21-21h-3c-0.8 0-1.5 0.7-1.5 1.5v11c0 0.8 0.7 1.5 1.5 1.5h3c0.8 0 1.5-0.7 1.5-1.5v-11c0-0.8-0.7-1.5-1.5-1.5z"></path></g></svg>

<?xml version="1.0" encoding="utf-8"?>
<!-- Generator: Adobe Illustrator 18.1.1, SVG Export Plug-In . SVG Version: 6.00 Build 0)  -->
<svg version="1.1" id="Layer_1" xmlns="http://www.w3.org/2000/svg" xmlns:xlink="http://www.w3.org/1999/xlink" x="0px" y="0px"
	 width="52px" height="52px" viewBox="0 0 52 52" enable-background="new 0 0 52 52" xml:space="preserve">
<g>
	<path fill="#FFFFFF" d="M16,27.5v-3c0-0.8-0.7-1.5-1.5-1.5h-11C2.7,23,2,23.7,2,24.5v3C2,28.3,2.7,29,3.5,29h11
		C15.3,29,16,28.3,16,27.5z"/>
	<path fill="#FFFFFF" d="M17.9,32c-0.6-0.6-1.5-0.6-2.1,0L8,39.8c-0.6,0.6-0.6,1.5,0,2.1l2.1,2.1c0.6,0.6,1.5,0.6,2.1,0l7.8-7.8
		c0.6-0.6,0.6-1.5,0-2.1L17.9,32z"/>
	<path fill="#FFFFFF" d="M34.1,20c0.6,0.6,1.5,0.6,2.1,0l7.8-7.8c0.6-0.6,0.6-1.5,0-2.1L41.9,8c-0.6-0.6-1.5-0.6-2.1,0L32,15.7
		c-0.6,0.6-0.6,1.5,0,2.1L34.1,20z"/>
	<path fill="#FFFFFF" d="M12.2,8c-0.6-0.6-1.5-0.6-2.1,0L8,10.1c-0.6,0.6-0.6,1.5,0,2.1l7.8,7.8c0.6,0.6,1.5,0.6,2.1,0l2.1-2.1
		c0.6-0.6,0.6-1.5,0-2.1L12.2,8z"/>
	<path fill="#FFFFFF" d="M36.3,32c-0.6-0.6-1.5-0.6-2.1,0L32,34.1c-0.6,0.6-0.6,1.5,0,2.1l7.8,7.8c0.6,0.6,1.5,0.6,2.1,0l2.1-2.1
		c0.6-0.6,0.6-1.5,0-2.1L36.3,32z"/>
	<path fill="#FFFFFF" d="M27.5,36h-3c-0.8,0-1.5,0.7-1.5,1.5v11c0,0.8,0.7,1.5,1.5,1.5h3c0.8,0,1.5-0.7,1.5-1.5v-11
		C29,36.7,28.3,36,27.5,36z"/>
	<path fill="#FFFFFF" d="M48.5,23h-11c-0.8,0-1.5,0.7-1.5,1.5v3c0,0.8,0.7,1.5,1.5,1.5h11c0.8,0,1.5-0.7,1.5-1.5v-3
		C50,23.7,49.3,23,48.5,23z"/>
	<path fill="#FFFFFF" d="M27.5,2h-3C23.7,2,23,2.7,23,3.5v11c0,0.8,0.7,1.5,1.5,1.5h3c0.8,0,1.5-0.7,1.5-1.5v-11
		C29,2.7,28.3,2,27.5,2z"/>
</g>
</svg>
